X:1
T:Bourbon, LM
T:Freeman Lewis, 1820
T:Bourbon, LM
T:Public Domain
C:Freeman Lewis, 1820
Z:Public Domain
%%score ( 1 2 ) ( 3 4 )
L:1/8
M:2/2
K:C
V:1 treble 
V:2 treble 
V:3 bass 
V:4 bass 
V:1
 E4 | A2 (AG) c4 | (d3 c) A2 ^G2 | A4 A4 | c2 A2 c4 | A4 c2 d2 | e4 e4 | g2 (ed) e4 | %8
 (d3 c) A2 G2 | G4 E4 | A2 (AG) c4 | (d3 c) A2 ^G2 | A4 |] %13
V:2
 E4 | A2 c4 x2 | d3 c A2 ^G2 | A4 A4 | c2 A2 c4 | A4 c2 d2 | e4 e4 | g2 e4 x2 | d3 c A2 G2 | %9
 G4 E4 | A2 c4 x2 | d3 c A2 ^G2 | A4 |] %13
V:3
 E,4 | [D,A,]2 ([D,A,][E,G,]) [C,A,]4 | ([D,B,]3 [E,C]) [D,D]2 [E,C]2 | [A,,E]4 [A,,E]4 | %4
 [C,E]2 [D,D]2 [E,E]4 | [A,E]4 [^G,C]2 B,2 | [E,B,]4 [E,C]4 | [G,D]2 (CB,) A,4 | %8
 [E,B,]4 [C,C]2 (DC) | [E,B,]4 B,3 C | [D,D]2 (CD) [A,E]4 | ([^G,D]3 [A,E]) [E,C]2 [E,B,]2 | %12
 [A,,A,]4 |] %13
V:4
 E,4 | x8 | x8 | x8 | x8 | x6 B,2 | x8 | x4 A,4 | x6 D,2 | x4 E,4 | x2 E,2 x4 | x8 | x4 |] %13

